X: 42859
T: Wild Irishman, The
R: reel
M: 4/4
K: Dmajor
"D" d2fd gdfd|dfed "A" cdec|"D" d2fd gdfd|"Emi" fgfe "A" dcBc|
"D" d2fd gdfd|dfed "A" cdeg|"F#min" f3 f "G" g2 ge|"A" ccBc "D" dcdf|
"A" edcB A3f|e A3 eAfA|edcB ABcd|"G" fgfe "Emi" dcdf|
"A" edcB A3f|e A3 eAfA|edcB ABcd|"G" fgfe "D" dABc||

